public/assets/boombap-logo.svg

<svg width="526" height="216" viewBox="0 0 526 216" fill="none" xmlns="http://www.w3.org/2000/svg">
<path d="M0 0H72.3027V13.2418H0V0ZM40.4286 19.9213V31.9913H31.9913L36.7959 37.9677C38.124 39.6083 39.4911 41.327 40.8973 43.1238C42.3817 44.8426 43.5926 46.2878 44.5301 47.4597C45.5457 48.6315 46.0535 49.2174 46.0535 49.2174C46.0535 49.2174 45.9753 48.944 45.8191 48.3971C45.741 47.8503 45.6238 46.7175 45.4675 44.9988C45.3894 43.202 45.3503 40.5848 45.3503 37.1474V5.85922H65.2717V75.2324H45.3503V63.1624L46.0535 61.2874L33.046 45.4675C32.4991 44.7644 31.5226 43.5535 30.1164 41.8348C28.7102 40.038 27.2649 38.2021 25.7806 36.3272V50.0377C25.7806 51.1314 26.0149 51.8736 26.4837 52.2642C26.9524 52.6548 27.6165 52.8501 28.4758 52.8501H44.6472C45.5066 52.8501 46.1706 52.6548 46.6394 52.2642C47.1081 51.8736 47.3425 51.1314 47.3425 50.0377L48.9831 57.8891C48.9831 60.5453 48.5143 62.5765 47.5769 63.9827C46.6394 65.3889 44.491 66.092 41.1317 66.092H21.2104C16.2105 66.092 12.3825 64.9983 9.7263 62.8108C7.14825 60.5453 5.85922 56.6782 5.85922 51.2096V32.4601C5.85922 28.1633 6.992 24.9993 9.25757 22.9681C11.5231 20.9369 15.859 19.9213 22.265 19.9213H40.4286Z" fill="#FAFAFA"/>
<path d="M62.5938 74.2949C66.8906 74.2949 70.4452 74.7636 73.2576 75.7011C76.07 76.7167 78.4919 78.201 80.5231 80.1541C82.5543 82.1853 84.5073 84.7243 86.3823 87.7711L99.6241 109.216H76.3044L64.2344 90.1148C63.6094 89.0211 62.9063 88.318 62.1251 88.0055C61.3439 87.693 60.3283 87.5367 59.0783 87.5367H56.0315C54.5472 87.5367 53.5707 87.732 53.1019 88.1226C52.6332 88.5914 52.3988 89.607 52.3988 91.1694V92.2241C52.3988 93.7084 52.6332 94.685 53.1019 95.1537C53.5707 95.6224 54.5472 95.8568 56.0315 95.8568H61.6564V109.216H47.8286C42.8288 109.216 39.0398 108.083 36.4617 105.817C33.8056 103.63 32.4775 99.802 32.4775 94.3334V89.1773C32.4775 83.7087 33.8056 79.8416 36.4617 77.576C39.0398 75.3886 42.8288 74.2949 47.8286 74.2949H62.5938Z" fill="#FAFAFA"/>
<path d="M148.301 9.60912H168.223V51.2096C168.223 56.6782 166.817 60.5453 164.004 62.8108C161.27 64.9983 156.387 66.092 149.356 66.092H139.278C132.247 66.092 127.325 64.9983 124.513 62.8108C121.779 60.5453 120.412 56.6782 120.412 51.2096V37.1474C120.412 32.8507 121.544 29.6867 123.81 27.6555C126.075 25.6243 130.411 24.6087 136.817 24.6087H188.613V37.8506H140.919C140.059 37.8506 139.395 38.0459 138.927 38.4365C138.458 38.749 138.224 39.3349 138.224 40.1942V50.0377C138.224 51.1314 138.497 51.8736 139.044 52.2642C139.591 52.6548 140.294 52.8501 141.153 52.8501H145.372C146.231 52.8501 146.934 52.6548 147.481 52.2642C148.028 51.8736 148.301 51.1314 148.301 50.0377V9.60912ZM177.363 10.5466H197.284V75.2324H177.363V10.5466ZM114.552 0H204.316V13.2418H114.552V0Z" fill="#FAFAFA"/>
<path d="M253.53 0H287.982C294.232 0 298.646 1.32809 301.224 3.98427C303.88 6.64045 305.209 10.156 305.209 14.5309V24.14C305.209 27.1868 304.818 29.8429 304.037 32.1085C303.334 34.3741 301.849 36.1318 299.584 37.3818C301.849 38.3974 303.334 39.9208 304.037 41.952C304.818 43.9832 305.209 46.4831 305.209 49.4518V60.7015C305.209 65.0764 303.88 68.5919 301.224 71.2481C298.646 73.9043 294.232 75.2324 287.982 75.2324H253.53V0ZM285.053 59.1781V46.8737C285.053 46.0144 284.818 45.3894 284.35 44.9988C283.881 44.5301 283.139 44.2957 282.123 44.2957H273.686V61.7562H282.123C283.139 61.7562 283.881 61.5609 284.35 61.1702C284.818 60.7015 285.053 60.0375 285.053 59.1781ZM285.053 28.2414V16.0543C285.053 15.1949 284.818 14.5699 284.35 14.1793C283.881 13.7106 283.139 13.4762 282.123 13.4762H273.686V30.8195H282.123C283.139 30.8195 283.881 30.6242 284.35 30.2336C284.818 29.7648 285.053 29.1008 285.053 28.2414Z" fill="#FAFAFA"/>
<path d="M406.926 49.4518V63.9827H369.31V49.4518H406.926ZM419.817 75.2324H399.192L387.943 22.3822L376.341 75.2324H356.186L375.521 0H400.481L419.817 75.2324Z" fill="#FAFAFA"/>
<path d="M502.942 33.3975V17.2261C502.942 16.3667 502.708 15.7418 502.239 15.3511C501.771 14.8824 501.028 14.648 500.013 14.648H478.217V0H506.224C512.473 0 516.887 1.32809 519.465 3.98427C522.122 6.64045 523.45 10.156 523.45 14.5309V36.0928C523.45 40.4677 522.122 43.9832 519.465 46.6394C516.887 49.2956 512.473 50.6236 506.224 50.6236H478.217V35.9756H500.013C501.028 35.9756 501.771 35.7803 502.239 35.3897C502.708 34.9209 502.942 34.2569 502.942 33.3975ZM471.42 0H491.927V75.2324H471.42V0Z" fill="#FAFAFA"/>
<path d="M8.61656 119.547H52.5556C60.5264 119.547 66.1558 121.24 69.4437 124.628C72.8313 128.016 74.5251 132.499 74.5251 138.079V150.334C74.5251 154.22 74.0269 157.607 73.0306 160.497C72.1339 163.386 70.2408 165.628 67.3514 167.222C70.2408 168.517 72.1339 170.46 73.0306 173.051C74.0269 175.641 74.5251 178.829 74.5251 182.616V196.963C74.5251 202.543 72.8313 207.026 69.4437 210.414C66.1558 213.801 60.5264 215.495 52.5556 215.495H8.61656V119.547ZM48.8193 195.02V179.328C48.8193 178.232 48.5204 177.434 47.9226 176.936C47.3248 176.339 46.3782 176.04 45.083 176.04H34.3224V198.308H45.083C46.3782 198.308 47.3248 198.059 47.9226 197.561C48.5204 196.963 48.8193 196.116 48.8193 195.02ZM48.8193 155.565V140.022C48.8193 138.926 48.5204 138.128 47.9226 137.63C47.3248 137.032 46.3782 136.734 45.083 136.734H34.3224V158.853H45.083C46.3782 158.853 47.3248 158.603 47.9226 158.105C48.5204 157.507 48.8193 156.661 48.8193 155.565Z" fill="#FAFAFA"/>
<path d="M184.973 159.6V141.516C184.973 140.42 184.674 139.623 184.076 139.125C183.478 138.527 182.532 138.228 181.237 138.228H176.305V119.547H189.158C197.128 119.547 202.758 121.24 206.046 124.628C209.433 128.016 211.127 132.499 211.127 138.079V159.6H184.973ZM184.973 193.526V157.657H211.127V196.963C211.127 202.543 209.433 207.026 206.046 210.414C202.758 213.801 197.128 215.495 189.158 215.495H176.305V196.813H181.237C182.532 196.813 183.478 196.564 184.076 196.066C184.674 195.468 184.973 194.622 184.973 193.526ZM171.223 141.516V159.6H145.069V138.079C145.069 132.499 146.713 128.016 150.001 124.628C153.389 121.24 159.068 119.547 167.039 119.547H179.891V138.228H174.96C173.664 138.228 172.718 138.527 172.12 139.125C171.522 139.623 171.223 140.42 171.223 141.516ZM171.223 157.657V193.526C171.223 194.622 171.522 195.468 172.12 196.066C172.718 196.564 173.664 196.813 174.96 196.813H179.891V215.495H167.039C159.068 215.495 153.389 213.801 150.001 210.414C146.713 207.026 145.069 202.543 145.069 196.963V157.657H171.223Z" fill="#FAFAFA"/>
<path d="M335.474 194.721H317.54L305.733 154.817V215.495H282.418V119.547H310.964L326.507 170.809L342.05 119.547H370.595V215.495H347.43V154.518L335.474 194.721Z" fill="#FAFAFA"/>
<path d="M433.412 119.547H525.624V136.435H433.412V119.547ZM484.973 144.953V160.347H474.213L480.34 167.969C482.034 170.061 483.777 172.253 485.571 174.545C487.464 176.737 489.008 178.58 490.204 180.075C491.499 181.569 492.147 182.317 492.147 182.317C492.147 182.317 492.047 181.968 491.848 181.27C491.748 180.573 491.599 179.128 491.4 176.936C491.3 174.645 491.25 171.307 491.25 166.923V127.019H516.657V215.495H491.25V200.101L492.147 197.71L475.558 177.534C474.86 176.637 473.615 175.093 471.821 172.901C470.028 170.609 468.185 168.268 466.292 165.877V183.363C466.292 184.758 466.59 185.704 467.188 186.202C467.786 186.701 468.633 186.95 469.729 186.95H490.353C491.449 186.95 492.296 186.701 492.894 186.202C493.492 185.704 493.791 184.758 493.791 183.363L495.883 193.376C495.883 196.764 495.285 199.354 494.09 201.148C492.894 202.941 490.154 203.838 485.87 203.838H460.463C454.086 203.838 449.204 202.443 445.817 199.653C442.529 196.764 440.885 191.832 440.885 184.857V160.945C440.885 155.465 442.329 151.43 445.219 148.839C448.108 146.249 453.638 144.953 461.808 144.953H484.973Z" fill="#FAFAFA"/>
<path d="M494.71 89.5066L516.081 119.995H491.571C488.084 117.205 484.896 114.266 482.006 111.177C479.017 107.989 476.028 104.502 473.039 100.716L464.371 89.5066H494.71Z" fill="#FAFAFA"/>
</svg>

<svg xmlns="http://www.w3.org/2000/svg" width="526" height="216" fill="none" viewBox="0 0 526 216"><path fill="#fafafa" d="M0 0h72.303v13.242H0zm40.429 19.921v12.07H31.99l4.805 5.977q1.992 2.46 4.101 5.156a155 155 0 0 1 3.633 4.336l1.523 1.757-.234-.82q-.117-.82-.352-3.398-.117-2.695-.117-7.852V5.86h19.922v69.373H45.35v-12.07l.703-1.875-13.007-15.82a221 221 0 0 0-2.93-3.632 1254 1254 0 0 0-4.335-5.508v13.71q0 1.642.703 2.227.702.585 1.992.586h16.171q1.29 0 1.992-.586.704-.586.703-2.226l1.641 7.851q0 3.984-1.406 6.094-1.407 2.109-6.445 2.109H21.21q-7.5 0-11.484-3.281-3.866-3.4-3.866-11.602V32.46q0-6.445 3.399-9.492t13.007-3.047z"/><path fill="#fafafa" d="M62.594 74.295q6.445 0 10.664 1.406 4.218 1.524 7.265 4.453 3.046 3.046 5.86 7.617l13.241 21.445h-23.32l-12.07-19.101q-.937-1.64-2.109-2.11-1.172-.468-3.047-.468h-3.047q-2.226 0-2.93.586-.702.702-.702 3.046v1.055q0 2.226.703 2.93.703.703 2.93.703h5.624v13.359H47.83q-7.5 0-11.367-3.399-3.984-3.28-3.985-11.484v-5.156q0-8.202 3.985-11.601 3.867-3.28 11.367-3.281zM148.301 9.61h19.922v41.6q0 8.202-4.219 11.6-4.101 3.282-14.648 3.282h-10.078q-10.547 0-14.765-3.281-4.101-3.399-4.101-11.601V37.147q0-6.444 3.398-9.491 3.398-3.048 13.007-3.047h51.796V37.85h-47.694q-1.29 0-1.992.586-.703.468-.703 1.757v9.844q0 1.64.82 2.226.82.585 2.109.586h4.219q1.288 0 2.109-.586.82-.586.82-2.226zm29.062.937h19.921v64.685h-19.921zM114.552 0h89.764v13.242h-89.764zM253.53 0h34.452q9.375 0 13.242 3.984 3.984 3.984 3.985 10.547v9.609q0 4.57-1.172 7.968-1.055 3.399-4.453 5.274 3.398 1.523 4.453 4.57 1.172 3.046 1.172 7.5v11.25q0 6.562-3.985 10.546-3.867 3.984-13.242 3.984H253.53zm31.523 59.178V46.874q0-1.29-.703-1.875-.703-.703-2.227-.703h-8.437v17.46h8.437q1.524 0 2.227-.586.702-.703.703-1.992m0-30.937V16.054q0-1.29-.703-1.875-.703-.703-2.227-.703h-8.437V30.82h8.437q1.524 0 2.227-.586.702-.704.703-1.993m121.873 21.211v14.53H369.31v-14.53zm12.891 25.78h-20.625l-11.249-52.85-11.602 52.85h-20.155L375.521 0h24.96zm83.125-41.834V17.226q0-1.29-.703-1.875-.703-.703-2.226-.703h-21.796V0h28.007q9.374 0 13.241 3.984 3.985 3.984 3.985 10.547v21.562q0 6.562-3.985 10.546-3.867 3.985-13.241 3.985h-28.007V35.976h21.796q1.523 0 2.226-.586.703-.704.703-1.992M471.42 0h20.507v75.232H471.42zM8.617 119.547h43.939q11.956 0 16.888 5.081 5.08 5.081 5.081 13.451v12.255q0 5.828-1.494 10.163-1.345 4.334-5.68 6.725 4.335 1.942 5.68 5.829 1.494 3.885 1.494 9.565v14.347q0 8.37-5.081 13.451-4.933 5.08-16.888 5.081H8.616zm40.202 75.473v-15.692q0-1.644-.896-2.392-.897-.896-2.84-.896h-10.76v22.268h10.76q1.943 0 2.84-.747.896-.897.896-2.541m0-39.455v-15.543q0-1.644-.896-2.392-.897-.897-2.84-.896h-10.76v22.119h10.76q1.943 0 2.84-.748.896-.897.896-2.54m136.154 4.035v-18.084q0-1.644-.897-2.391-.897-.897-2.839-.897h-4.932v-18.681h12.853q11.956 0 16.888 5.081 5.08 5.081 5.081 13.451V159.6zm0 33.926v-35.869h26.154v39.306q0 8.37-5.081 13.451-4.933 5.08-16.888 5.081h-12.853v-18.682h4.932q1.942 0 2.839-.747.897-.897.897-2.54m-13.75-52.01V159.6h-26.154v-21.521q0-8.37 4.932-13.451 5.082-5.082 17.038-5.081h12.852v18.681h-4.931q-1.944 0-2.84.897-.897.747-.897 2.391m0 16.141v35.869q0 1.643.897 2.54.897.747 2.84.747h4.931v18.682h-12.852q-11.956 0-17.038-5.081-4.932-5.082-4.932-13.451v-39.306zm164.251 37.064H317.54l-11.807-39.904v60.678h-23.315v-95.948h28.546l15.543 51.262 15.543-51.262h28.545v95.948H347.43v-60.977zm97.938-75.174h92.212v16.888h-92.212zm51.561 25.406v15.394h-10.76l6.127 7.622a509 509 0 0 1 5.231 6.576q2.84 3.288 4.633 5.53l1.943 2.242-.299-1.047q-.15-1.046-.448-4.334-.15-3.437-.15-10.013v-39.904h25.407v88.476H491.25v-15.394l.897-2.391-16.589-20.176q-1.046-1.345-3.737-4.633a1536 1536 0 0 0-5.529-7.024v17.486q0 2.092.896 2.839.897.748 2.541.748h20.624q1.644 0 2.541-.748.897-.747.897-2.839l2.092 10.013q0 5.082-1.793 7.772-1.794 2.69-8.22 2.69h-25.407q-9.565 0-14.646-4.185-4.932-4.334-4.932-14.796v-23.912q0-8.22 4.334-12.106t16.589-3.886z"/><path fill="#fafafa" d="m494.71 89.507 21.371 30.488h-24.51a90.4 90.4 0 0 1-9.565-8.818q-4.484-4.782-8.967-10.461l-8.668-11.21z"/></svg>
